X:3331
L:1/4
M:4/4
K:C
[M:4/4][K:G] d/[Q:1/8=120]"^moderato" .g g/a/ f e | d B/c/ d/c/B/A/ | G D E F | G A B c | 
"^5" d2 g f/e/ | d a d f | g d' c' b | a g f2 |"^9" g e/f/ g d | g c' e c | d'/c'/b/c'/ d' g | 
 f a d' a |"^13" b e' a g | f/e/f/g/ a b | d g g a/g/ | g2 g2 :|"^17" d/>e/ d c/>d/ c | 
 B/>c/ B A/>B/ A | G F E D | C E A D |"^21" G d c/B/A/G/ | c e a d | g d' e c' | d b a g | 
"^25" a/b/ c' e c | d a g/f/e/f/ | g g g/b/ g | g/b/ g c' a |"^29" b b b d'/g/ | e/a/ g f e/d/ | 
 e/f/ g e c | a g f e | d c B/c/B/G/ | g2 g2 :|

